X:2724
T:Castle Doune? JB.63
T:Castle Downs,The,aka. JB.63
M:6/8
L:1/8
Q:120
S:James Biggins MS, Leeds, 1779.
R:Jig
O:England
A:Yorkshire
N:Almost the same as Vickers.
Z:vmp.Nick Barber & Chris Partington
K:G
G2AB2G|c2AB2G|BdB AGF|E3E3|!
G2AB2G|c2AB2G|BdB AFA|D3D3:|!
|:B2cd2B|e2cd2B|efg dcB|A3ABc|!
dcB edc|fed gfe|dcB AGF|"tr"G3G3:|]


